; generated by PrusaSlicer 2.4.2+win64 on 2023-01-13 at 13:41:27 UTC

; 

; external perimeters extrusion width = 0.45mm
; perimeters extrusion width = 0.45mm
; infill extrusion width = 0.45mm
; solid infill extrusion width = 0.45mm
; top infill extrusion width = 0.40mm
; first layer extrusion width = 0.42mm

M73 P0 R46
M73 Q0 S47
M201 X1000 Y1000 Z200 E5000 ; sets maximum accelerations, mm/sec^2
M203 X200 Y200 Z12 E120 ; sets maximum feedrates, mm / sec
M204 P1250 R1250 T1250 ; sets acceleration (P, T) and retract acceleration (R), mm/sec^2
M205 X8.00 Y8.00 Z0.40 E4.50 ; sets the jerk limits, mm/sec
M205 S0 T0 ; sets the minimum extruding and travel feed rate, mm/sec
M107
;TYPE:Custom
M862.3 P "MK3S" ; printer model check
M862.1 P0.4 ; nozzle diameter check
M115 U3.10.1 ; tell printer latest fw version
G90 ; use absolute coordinates
M83 ; extruder relative mode
M104 S230 ; set extruder temp
M140 S85 ; set bed temp
M190 S85 ; wait for bed temp
M109 S230 ; wait for extruder temp
G28 W ; home all without mesh bed level
G80 ; mesh bed leveling
G1 Z0.2 F720
G1 Y-3 F1000 ; go outside print area
G92 E0
G1 X60 E9 F1000 ; intro line
G1 X100 E12.5 F1000 ; intro line
G92 E0
M221 S95

; Don't change E values below. Excessive value can damage the printer.
M907 E430 ; set extruder motor current
G21 ; set units to millimeters
G90 ; use absolute coordinates
M83 ; use relative distances for extrusion
M900 K0.08 ; Filament gcode LA 1.5
M900 K45 ; Filament gcode LA 1.0
M107
;LAYER_CHANGE
;Z:0.2
;HEIGHT:0.2
;BEFORE_LAYER_CHANGE
G92 E0.0
;0.2


G1 E-1 F2100
G1 Z.2 F720
;AFTER_LAYER_CHANGE
;0.2
G1 Z.4
G1 X112.786 Y83.843 F10800
G1 Z.2 F720
G1 E1 F2100
M204 S800
;TYPE:Skirt/Brim
;WIDTH:0.42
G1 F1200
G1 X113.832 Y82.967 E.04278
G1 X114.772 Y82.773 E.03008
G1 X135.228 Y82.773 E.64139
G1 X136.535 Y83.165 E.04278
G1 X137.412 Y84.21 E.04278
G1 X137.605 Y85.15 E.03008
G1 X137.605 Y124.85 E1.24477
G1 X137.214 Y126.157 E.04278
G1 X136.168 Y127.033 E.04278
G1 X135.228 Y127.227 E.03008
G1 X114.772 Y127.227 E.64139
G1 X113.465 Y126.835 E.04278
G1 X112.588 Y125.79 E.04278
G1 X112.395 Y124.85 E.03008
G1 X112.395 Y85.15 E1.24477
G1 X112.769 Y83.9 E.0409
M204 S1000
; printing object BaseSwitchHolder.stl id:0 copy 0
;WIPE_START
G1 F8640
G1 X113.832 Y82.967 E-.32671
G1 X114.772 Y82.773 E-.22155
G1 X116.512 Y82.773 E-.40174
;WIPE_END
G1 E-.05 F2100
G1 Z.4 F720
G1 X127.72 Y120.04 F10800
G1 Z.2 F720
G1 E1 F2100
M204 S800
;TYPE:External perimeter
G1 F1200
G1 X128.095 Y119.918 E.01236
G1 X128.46 Y119.869 E.01156
G1 X128.878 Y119.883 E.01312
G1 X129.264 Y119.971 E.0124
G1 X129.626 Y120.126 E.01236
G1 X129.956 Y120.343 E.01236
G1 X130.24 Y120.616 E.01236
G1 X130.472 Y120.935 E.01236
G1 X130.643 Y121.29 E.01236
G1 X130.748 Y121.67 E.01236
G1 X130.784 Y122.062 E.01236
G1 X130.748 Y122.455 E.01236
G1 X130.643 Y122.835 E.01236
G1 X130.472 Y123.191 E.01237
G1 X130.238 Y123.51 E.01241
G1 X129.946 Y123.78 E.01246
G1 X129.604 Y123.987 E.01255
G1 X129.227 Y124.107 E.0124
G1 X128.854 Y124.153 E.01177
G1 X128.495 Y124.161 E.01128
G1 X128.13 Y124.135 E.01146
G1 X127.752 Y124.057 E.0121
G1 X127.389 Y123.891 E.01251
G1 X127.07 Y123.652 E.0125
G1 X126.807 Y123.356 E.01244
G1 X126.603 Y123.017 E.01239
G1 X126.464 Y122.648 E.01237
G1 X126.394 Y122.26 E.01236
G1 X126.394 Y121.865 E.01236
G1 X126.464 Y121.477 E.01236
G1 X126.603 Y121.108 E.01236
G1 X126.805 Y120.77 E.01236
G1 X127.065 Y120.473 E.01236
G1 X127.373 Y120.227 E.01236
G1 X127.667 Y120.069 E.01048
M204 S1000
G1 X127.767 Y119.649 F10800
;WIPE_START
G1 F8640
G1 X128.095 Y119.918 E-.1047
G1 X128.46 Y119.869 E-.08512
G1 X128.878 Y119.883 E-.09659
G1 X129.264 Y119.971 E-.09132
G1 X129.626 Y120.126 E-.09104
G1 X129.956 Y120.343 E-.09104
G1 X130.24 Y120.616 E-.09103
G1 X130.472 Y120.935 E-.09104
G1 X130.643 Y121.29 E-.09104
G1 X130.748 Y121.67 E-.09104
G1 X130.758 Y121.782 E-.02606
;WIPE_END
G1 E-.05 F2100
G1 Z.4 F720
G1 X119.973 Y121.67 F10800
G1 Z.2 F720
G1 E1 F2100
M204 S800
G1 F1200
G1 X120.009 Y122.062 E.01236
G1 X119.973 Y122.455 E.01236
G1 X119.868 Y122.835 E.01236
G1 X119.697 Y123.191 E.01237
G1 X119.463 Y123.51 E.01241
G1 X119.171 Y123.78 E.01246
G1 X118.829 Y123.987 E.01255
G1 X118.452 Y124.107 E.0124
G1 X118.079 Y124.153 E.01177
G1 X117.72 Y124.161 E.01128
G1 X117.355 Y124.135 E.01146
G1 X116.977 Y124.057 E.0121
G1 X116.614 Y123.891 E.01251
G1 X116.295 Y123.652 E.0125
G1 X116.032 Y123.356 E.01244
G1 X115.828 Y123.017 E.01239
G1 X115.689 Y122.648 E.01237
G1 X115.619 Y122.26 E.01236
G1 X115.619 Y121.865 E.01236
G1 X115.689 Y121.477 E.01236
G1 X115.828 Y121.108 E.01236
G1 X116.03 Y120.77 E.01236
G1 X116.29 Y120.473 E.01236
G1 X116.598 Y120.227 E.01236
G1 X116.945 Y120.04 E.01236
G1 X117.32 Y119.918 E.01236
G1 X117.685 Y119.869 E.01156
G1 X118.103 Y119.883 E.01312
G1 X118.489 Y119.971 E.0124
G1 X118.851 Y120.126 E.01236
G1 X119.181 Y120.343 E.01236
G1 X119.465 Y120.616 E.01236
G1 X119.697 Y120.935 E.01236
G1 X119.868 Y121.29 E.01236
G1 X119.957 Y121.612 E.01048
M204 S1000
G1 X120.344 Y121.803 F10800
;WIPE_START
G1 F8640
G1 X120.009 Y122.062 E-.10469
G1 X119.973 Y122.455 E-.09104
G1 X119.868 Y122.835 E-.09105
G1 X119.697 Y123.191 E-.09111
G1 X119.463 Y123.51 E-.09137
G1 X119.171 Y123.78 E-.09178
G1 X118.829 Y123.987 E-.09244
G1 X118.452 Y124.107 E-.09135
G1 X118.079 Y124.153 E-.08665
G1 X117.72 Y124.161 E-.08309
G1 X117.566 Y124.15 E-.03543
;WIPE_END
G1 E-.05 F2100
G1 Z.4 F720
G1 X116.22 Y124.067 F10800
G1 Z.2 F720
G1 E1 F2100
M204 S800
;TYPE:Perimeter
G1 F1200
G1 X115.559 Y124.065 E.02073
G1 X115.559 Y123.301 E.02395
G1 X115.726 Y123.58 E.01021
G1 X116.039 Y123.931 E.01472
G1 X116.172 Y124.031 E.00524
M204 S1000
;WIPE_START
G1 F8640
G1 X115.559 Y124.065 E-.14183
G1 X115.559 Y123.301 E-.17641
G1 X115.726 Y123.58 E-.07516
G1 X116.039 Y123.931 E-.10841
G1 X116.172 Y124.031 E-.03857
;WIPE_END
G1 E-.45961 F2100
G1 Z.4 F720
G1 X127.18 Y90.41 F10800
G1 Z.2 F720
G1 E1 F2100
M204 S800
;TYPE:External perimeter
G1 F1200
G1 X126.833 Y90.223 E.01236
G1 X126.525 Y89.977 E.01236
G1 X126.265 Y89.68 E.01236
G1 X126.063 Y89.342 E.01236
G1 X125.924 Y88.973 E.01236
G1 X125.854 Y88.585 E.01236
G1 X125.854 Y88.19 E.01236
G1 X125.924 Y87.802 E.01236
G1 X126.063 Y87.433 E.01236
G1 X126.265 Y87.095 E.01236
G1 X126.525 Y86.798 E.01236
G1 X126.833 Y86.552 E.01236
G1 X127.18 Y86.365 E.01236
G1 X127.555 Y86.243 E.01236
G1 X127.92 Y86.194 E.01156
G1 X128.338 Y86.208 E.01312
G1 X128.724 Y86.296 E.0124
G1 X129.086 Y86.451 E.01236
G1 X129.415 Y86.668 E.01236
G1 X129.7 Y86.941 E.01236
G1 X129.932 Y87.26 E.01236
G1 X130.103 Y87.615 E.01236
G1 X130.208 Y87.995 E.01236
G1 X130.244 Y88.388 E.01236
G1 X130.208 Y88.78 E.01236
G1 X130.103 Y89.16 E.01236
G1 X129.932 Y89.515 E.01236
G1 X129.7 Y89.834 E.01236
G1 X129.416 Y90.107 E.01236
G1 X129.086 Y90.324 E.01236
G1 X128.724 Y90.479 E.01236
G1 X128.34 Y90.567 E.01236
G1 X127.946 Y90.584 E.01236
G1 X127.555 Y90.532 E.01236
G1 X127.237 Y90.428 E.01048
M204 S1000
G1 X126.865 Y90.646 F10800
;WIPE_START
G1 F8640
G1 X126.833 Y90.223 E-.1047
G1 X126.525 Y89.977 E-.09103
G1 X126.265 Y89.68 E-.09104
G1 X126.063 Y89.342 E-.09104
G1 X125.924 Y88.973 E-.09103
G1 X125.854 Y88.585 E-.09103
G1 X125.854 Y88.19 E-.09104
G1 X125.924 Y87.802 E-.09104
G1 X126.063 Y87.433 E-.09104
G1 X126.265 Y87.095 E-.09104
G1 X126.339 Y87.01 E-.02598
;WIPE_END
G1 E-.05 F2100
G1 Z.4 F720
G1 X127.87 Y104.995 F10800
G1 Z.2 F720
G1 E1 F2100
M204 S800
;TYPE:Perimeter
G1 F1200
G1 X128.387 Y105.007 E.01623
G1 X128.841 Y105.111 E.0146
G1 X129.266 Y105.293 E.01449
G1 X129.652 Y105.547 E.01449
G1 X129.986 Y105.867 E.01449
G1 X130.257 Y106.24 E.01449
G1 X130.458 Y106.657 E.01449
G1 X130.581 Y107.102 E.01449
G1 X130.622 Y107.563 E.01449
G1 X130.581 Y108.023 E.01449
G1 X130.458 Y108.468 E.01449
G1 X130.257 Y108.885 E.01449
G1 X129.986 Y109.259 E.01449
G1 X129.652 Y109.578 E.01449
G1 X129.266 Y109.832 E.01449
G1 X128.841 Y110.014 E.01449
G1 X128.39 Y110.117 E.01449
G1 X127.929 Y110.138 E.01449
G1 X127.471 Y110.076 E.01449
G1 X127.031 Y109.933 E.01449
G1 X126.624 Y109.714 E.01449
G1 X126.263 Y109.426 E.01449
G1 X125.959 Y109.078 E.01449
G1 X125.722 Y108.681 E.01449
G1 X125.559 Y108.248 E.01449
G1 X125.477 Y107.794 E.01449
G1 X125.477 Y107.331 E.01449
G1 X125.559 Y106.877 E.01449
G1 X125.722 Y106.444 E.01449
G1 X125.959 Y106.047 E.01449
G1 X126.263 Y105.699 E.01449
G1 X126.624 Y105.411 E.01449
G1 X127.031 Y105.192 E.01449
G1 X127.471 Y105.049 E.01449
G1 X127.81 Y105.003 E.01074
M204 S1000
G1 X127.92 Y105.369 F10800
M204 S800
;TYPE:External perimeter
G1 F1200
G1 X128.338 Y105.383 E.01312
G1 X128.724 Y105.471 E.0124
G1 X129.086 Y105.626 E.01236
G1 X129.416 Y105.843 E.01236
G1 X129.7 Y106.116 E.01236
G1 X129.932 Y106.435 E.01236
G1 X130.103 Y106.79 E.01236
G1 X130.208 Y107.17 E.01236
G1 X130.244 Y107.563 E.01236
G1 X130.208 Y107.955 E.01236
G1 X130.103 Y108.335 E.01236
G1 X129.932 Y108.69 E.01236
G1 X129.7 Y109.009 E.01236
G1 X129.416 Y109.282 E.01236
G1 X129.086 Y109.499 E.01236
G1 X128.724 Y109.654 E.01236
G1 X128.34 Y109.742 E.01236
G1 X127.946 Y109.759 E.01236
G1 X127.555 Y109.707 E.01236
G1 X127.18 Y109.585 E.01236
G1 X126.833 Y109.398 E.01236
G1 X126.525 Y109.152 E.01236
G1 X126.265 Y108.855 E.01236
G1 X126.063 Y108.517 E.01236
G1 X125.924 Y108.148 E.01236
G1 X125.854 Y107.76 E.01236
G1 X125.854 Y107.365 E.01236
G1 X125.924 Y106.977 E.01236
G1 X126.063 Y106.608 E.01236
G1 X126.265 Y106.27 E.01236
G1 X126.525 Y105.973 E.01236
G1 X126.833 Y105.727 E.01236
G1 X127.18 Y105.54 E.01236
G1 X127.555 Y105.418 E.01236
G1 X127.861 Y105.377 E.00968
M204 S1000
G1 X128.101 Y105.012 F10800
;WIPE_START
G1 F8640
G1 X128.338 Y105.383 E-.11027
G1 X128.724 Y105.471 E-.09132
G1 X129.086 Y105.626 E-.09104
G1 X129.416 Y105.843 E-.09103
G1 X129.7 Y106.116 E-.09104
G1 X129.932 Y106.435 E-.09103
G1 X130.103 Y106.79 E-.09104
G1 X130.208 Y107.17 E-.09103
G1 X130.244 Y107.563 E-.09104
G1 X130.208 Y107.955 E-.09104
G1 X130.185 Y108.039 E-.02012
;WIPE_END
G1 E-.05 F2100
G1 Z.4 F720
G1 X127.603 Y119.682 F10800
G1 Z.2 F720
G1 E1 F2100
M204 S800
;TYPE:Perimeter
G1 F1200
G1 X127.164 Y119.911 E.01554
G1 X126.803 Y120.199 E.01449
G1 X126.499 Y120.547 E.01449
G1 X126.262 Y120.944 E.01449
G1 X126.099 Y121.377 E.01449
G1 X126.017 Y121.831 E.01449
G1 X126.017 Y122.294 E.01449
G1 X126.1 Y122.748 E.01449
G1 X126.262 Y123.182 E.01451
G1 X126.501 Y123.58 E.01457
G1 X126.814 Y123.931 E.01472
G1 X126.999 Y124.07 E.00726
G1 X119.414 Y124.069 E.23781
G1 X119.746 Y123.762 E.01417
G1 X120.021 Y123.386 E.01462
G1 X120.223 Y122.968 E.01452
G1 X120.346 Y122.523 E.0145
G1 X120.387 Y122.062 E.01449
G1 X120.346 Y121.602 E.01449
G1 X120.223 Y121.157 E.01449
G1 X120.022 Y120.74 E.01449
G1 X119.751 Y120.366 E.01449
G1 X119.417 Y120.047 E.01449
G1 X119.031 Y119.793 E.01449
G1 X118.606 Y119.611 E.01449
G1 X118.152 Y119.507 E.0146
G1 X117.666 Y119.491 E.01524
G1 X117.236 Y119.549 E.01362
G1 X116.796 Y119.692 E.01449
G1 X116.389 Y119.911 E.01449
G1 X116.028 Y120.199 E.01449
G1 X115.724 Y120.547 E.01449
G1 X115.559 Y120.823 E.01009
G1 X115.559 Y85.937 E1.09384
G1 X127.278 Y85.937 E.36744
G1 X127.031 Y86.017 E.00813
M73 Q0 S46
G1 X126.624 Y86.236 E.01449
G1 X126.263 Y86.524 E.01449
G1 X125.959 Y86.872 E.01449
G1 X125.722 Y87.269 E.01449
G1 X125.559 Y87.702 E.01449
G1 X125.477 Y88.156 E.01449
G1 X125.477 Y88.619 E.01449
G1 X125.559 Y89.073 E.01449
G1 X125.722 Y89.506 E.01449
G1 X125.959 Y89.903 E.01449
G1 X126.263 Y90.251 E.01449
G1 X126.624 Y90.539 E.01449
G1 X127.031 Y90.758 E.01449
G1 X127.471 Y90.901 E.01449
G1 X127.929 Y90.963 E.01449
G1 X128.39 Y90.942 E.01449
G1 X128.841 Y90.839 E.01449
G1 X129.266 Y90.657 E.01449
G1 X129.652 Y90.403 E.01449
G1 X129.986 Y90.084 E.01449
G1 X130.257 Y89.71 E.01449
G1 X130.458 Y89.293 E.01449
G1 X130.581 Y88.848 E.01449
G1 X130.622 Y88.388 E.01449
G1 X130.581 Y87.927 E.01449
G1 X130.458 Y87.482 E.01449
G1 X130.257 Y87.065 E.01449
G1 X129.986 Y86.691 E.01449
G1 X129.652 Y86.372 E.01449
G1 X129.266 Y86.118 E.01449
G1 X128.844 Y85.937 E.0144
G1 X134.441 Y85.937 E.1755
G1 X134.441 Y124.063 E1.19542
G1 X130.191 Y124.067 E.13324
G1 X130.521 Y123.762 E.01408
G1 X130.796 Y123.386 E.01462
G1 X130.998 Y122.968 E.01452
G1 X131.121 Y122.523 E.0145
G1 X131.162 Y122.063 E.01449
G1 X131.121 Y121.602 E.01449
G1 X130.998 Y121.157 E.01449
G1 X130.797 Y120.74 E.01449
G1 X130.526 Y120.366 E.01449
G1 X130.192 Y120.047 E.01449
G1 X129.806 Y119.793 E.01449
G1 X129.381 Y119.611 E.01449
G1 X128.927 Y119.507 E.0146
G1 X128.441 Y119.491 E.01524
M73 Q1 S46
G1 X128.011 Y119.549 E.01362
G1 X127.661 Y119.663 E.01155
M204 S1000
;WIPE_START
G1 F8640
G1 X127.164 Y119.911 E-.12811
G1 X126.803 Y120.199 E-.10671
G1 X126.499 Y120.547 E-.10671
G1 X126.262 Y120.944 E-.10671
G1 X126.099 Y121.377 E-.10671
G1 X126.017 Y121.831 E-.10671
G1 X126.017 Y122.294 E-.10671
G1 X126.1 Y122.748 E-.10673
G1 X126.214 Y123.052 E-.0749
;WIPE_END
G1 E-.05 F2100
G1 Z.4 F720
G1 X134.818 Y124.44 F10800
G1 Z.2 F720
M73 P1 R46
G1 E1 F2100
M204 S800
;TYPE:External perimeter
G1 F1200
G1 X130.235 Y124.443 E.14369
G1 X129.729 Y124.459 E.01589
G1 X128.736 Y124.533 E.03122
G1 X128.252 Y124.525 E.01516
G1 X127.255 Y124.452 E.03136
G1 X126.748 Y124.442 E.01589
G1 X119.76 Y124.441 E.21913
G1 X119.254 Y124.449 E.01584
G1 X117.766 Y124.537 E.04676
G1 X116.276 Y124.444 E.04682
G1 X115.182 Y124.441 E.03429
G1 X115.182 Y85.56 E1.21908
G1 X134.818 Y85.56 E.61568
G1 X134.818 Y124.38 E1.21718
M204 S1000
G1 X134.445 Y124.297 F10800
;WIPE_START
G1 F8640
G1 X130.704 Y124.437 E-.95
;WIPE_END
G1 E-.05 F2100
G1 Z.4 F720
G1 X129.883 Y124.065 F10800
G1 Z.2 F720
G1 E1 F2100
M204 S800
;TYPE:Gap fill
;WIDTH:0.133613
G1 F1200
G1 X129.705 Y124.199 E.00168
M204 S1000
M204 S800
;WIDTH:0.137114
G1 X129.696 Y124.205 E.00009
M204 S1000
M204 S800
;WIDTH:0.150751
G1 X129.669 Y124.22 E.00028
M204 S1000
M204 S800
;WIDTH:0.15075
G1 X129.537 Y124.246 E.00121
M204 S1000
M204 S800
;WIDTH:0.122035
G1 X129.404 Y124.272 E.00089
M204 S1000
;WIPE_START
G1 F8640
G1 X129.537 Y124.246 E-.03116
;WIPE_END
G1 E-.96884 F2100
G1 Z.4 F720
G1 X127.769 Y124.277 F10800
G1 Z.2 F720
G1 E1 F2100
M204 S800
;WIDTH:0.100842
G1 F1200
G1 X127.687 Y124.266 E.0004
M204 S1000
M204 S800
;WIDTH:0.10245
G1 X127.681 Y124.264 E.00003
M204 S1000
M204 S800
;WIDTH:0.151612
G1 X127.546 Y124.23 E.00126
M204 S1000
M204 S800
;WIDTH:0.200775
G1 X127.411 Y124.195 E.00183
M204 S1000
M204 S800
;WIDTH:0.249937
G1 X127.276 Y124.161 E.0024
M204 S1000
;WIPE_START
G1 F8640
G1 X127.411 Y124.195 E-.03214
;WIPE_END
G1 E-.96786 F2100
G1 Z.4 F720
G1 X119.108 Y124.065 F10800
G1 Z.2 F720
G1 E1 F2100
M204 S800
;WIDTH:0.133615
G1 F1200
G1 X118.93 Y124.199 E.00168
M204 S1000
M204 S800
;WIDTH:0.137115
G1 X118.921 Y124.205 E.00009
M204 S1000
M204 S800
;WIDTH:0.155122
G1 X118.886 Y124.225 E.00039
M204 S1000
M204 S800
;WIDTH:0.15512
G1 X118.751 Y124.25 E.00127
M204 S1000
M204 S800
;WIDTH:0.12422
G1 X118.617 Y124.275 E.00092
M204 S1000
;WIPE_START
G1 F8640
G1 X118.751 Y124.25 E-.03152
;WIPE_END
G1 E-.96848 F2100
G1 Z.4 F720
G1 X116.993 Y124.277 F10800
G1 Z.2 F720
G1 E1 F2100
M204 S800
;WIDTH:0.101195
G1 F1200
G1 X116.912 Y124.266 E.00039
M204 S1000
M204 S800
;WIDTH:0.102883
G1 X116.906 Y124.265 E.00003
M204 S1000
M204 S800
;WIDTH:0.141002
G1 X116.804 Y124.239 E.00086
M204 S1000
M204 S800
;WIDTH:0.179118
G1 X116.702 Y124.214 E.00119
M204 S1000
M204 S800
;WIDTH:0.217235
G1 X116.601 Y124.188 E.00152
M204 S1000
M204 S800
;WIDTH:0.255352
G1 X116.499 Y124.163 E.00185
M204 S1000
M204 S800
;WIDTH:0.255353
G1 X116.491 Y124.145 E.00034
M204 S1000
M204 S800
;WIDTH:0.229759
G1 X116.484 Y124.128 E.0003
M204 S1000
M204 S800
;WIDTH:0.204163
G1 X116.439 Y124.008 E.00172
M204 S1000
;WIPE_START
G1 F8640
G1 X116.484 Y124.128 E-.02954
;WIPE_END
G1 E-.97046 F2100
G1 Z.4 F720
G1 X115.513 Y123.118 F10800
G1 Z.2 F720
G1 E1 F2100
M204 S800
;WIDTH:0.284314
G1 F1200
G1 X115.489 Y122.986 E.00269
M204 S1000
M204 S800
;WIDTH:0.250889
G1 X115.465 Y122.855 E.00232
M204 S1000
M204 S800
;WIDTH:0.217463
G1 X115.441 Y122.723 E.00194
M204 S1000
M204 S800
;WIDTH:0.184036
G1 X115.439 Y122.71 E.00015
M204 S1000
M204 S800
;WIDTH:0.180636
G1 X115.42 Y122.496 E.00246
