; generated by PrusaSlicer 2.4.2+win64 on 2023-01-17 at 09:48:37 UTC

; 

; external perimeters extrusion width = 0.45mm
; perimeters extrusion width = 0.45mm
; infill extrusion width = 0.45mm
; solid infill extrusion width = 0.45mm
; top infill extrusion width = 0.40mm
; first layer extrusion width = 0.42mm

; external perimeters extrusion width = 0.45mm
; perimeters extrusion width = 0.45mm
; infill extrusion width = 0.45mm
; solid infill extrusion width = 0.45mm
; top infill extrusion width = 0.40mm
; first layer extrusion width = 0.42mm

M73 P0 R28
M73 Q0 S28
M201 X1000 Y1000 Z200 E5000 ; sets maximum accelerations, mm/sec^2
M203 X200 Y200 Z12 E120 ; sets maximum feedrates, mm / sec
M204 P1250 R1250 T1250 ; sets acceleration (P, T) and retract acceleration (R), mm/sec^2
M205 X8.00 Y8.00 Z0.40 E4.50 ; sets the jerk limits, mm/sec
M205 S0 T0 ; sets the minimum extruding and travel feed rate, mm/sec
M107
;TYPE:Custom
M862.3 P "MK3S" ; printer model check
M862.1 P0.4 ; nozzle diameter check
M115 U3.10.1 ; tell printer latest fw version
G90 ; use absolute coordinates
M83 ; extruder relative mode
M104 S230 ; set extruder temp
M140 S85 ; set bed temp
M190 S85 ; wait for bed temp
M109 S230 ; wait for extruder temp
G28 W ; home all without mesh bed level
G80 ; mesh bed leveling
G1 Z0.2 F720
G1 Y-3 F1000 ; go outside print area
G92 E0
G1 X60 E9 F1000 ; intro line
G1 X100 E12.5 F1000 ; intro line
G92 E0
M221 S95

; Don't change E values below. Excessive value can damage the printer.
M907 E430 ; set extruder motor current
G21 ; set units to millimeters
G90 ; use absolute coordinates
M83 ; use relative distances for extrusion
M900 K0.08 ; Filament gcode LA 1.5
M900 K45 ; Filament gcode LA 1.0
M107
;LAYER_CHANGE
;Z:0.2
;HEIGHT:0.2
;BEFORE_LAYER_CHANGE
G92 E0.0
;0.2


G1 E-1 F2100
G1 Z.2 F720
;AFTER_LAYER_CHANGE
;0.2
G1 Z.4
G1 X114.439 Y98.016 F10800
G1 Z.2 F720
G1 E1 F2100
M204 S800
;TYPE:Skirt/Brim
;WIDTH:0.42
G1 F1200
G1 X115.505 Y97.003 E.04612
G1 X116.8 Y96.68 E.04186
G1 X133.2 Y96.68 E.51421
G1 X134.617 Y97.072 E.04612
G1 X135.631 Y98.138 E.04612
G1 X135.954 Y99.425 E.04159
G1 X136.001 Y124.959 E.80061
G1 X135.608 Y126.376 E.04612
G1 X134.542 Y127.39 E.04612
G1 X133.247 Y127.713 E.04184
G1 X116.847 Y127.717 E.51421
G1 X115.43 Y127.324 E.04612
G1 X114.416 Y126.258 E.04612
G1 X114.092 Y124.971 E.0416
G1 X114.046 Y99.434 E.80072
G1 X114.423 Y98.074 E.04424
M204 S1000
G1 X114.797 Y98.186 F10800
M204 S800
G1 F1200
G1 X114.815 Y98.127 E.00195
G1 X115.86 Y97.25 E.04278
G1 X116.8 Y97.057 E.03008
G1 X133.2 Y97.057 E.51421
G1 X134.507 Y97.448 E.04278
G1 X135.383 Y98.494 E.04278
G1 X135.577 Y99.426 E.02985
G1 X135.624 Y124.959 E.80057
G1 X135.232 Y126.266 E.04278
G1 X134.186 Y127.142 E.04278
G1 X133.247 Y127.336 E.03007
G1 X116.847 Y127.34 E.51421
G1 X115.54 Y126.948 E.04278
G1 X114.663 Y125.903 E.04278
G1 X114.47 Y124.97 E.02986
G1 X114.423 Y99.434 E.80068
M73 P0 R27
G1 X114.779 Y98.244 E.03895
M204 S1000
; printing object SwitchHolder_Wrist_0.stl id:1 copy 0
;WIPE_START
M73 P1 R27
M73 Q1 S28
G1 F8640
G1 X114.815 Y98.127 E-.0282
G1 X115.86 Y97.25 E-.31505
G1 X116.8 Y97.057 E-.22155
G1 X118.468 Y97.057 E-.3852
;WIPE_END
G1 E-.05 F2100
G1 Z.4 F720
G1 X127.573 Y102.054 F10800
G1 Z.2 F720
G1 E1 F2100
M204 S800
;TYPE:Perimeter
G1 F1200
G1 X127.517 Y102.348 E.0094
G1 X127.496 Y102.671 E.01015
G1 X127.515 Y102.974 E.0095
G1 X127.577 Y103.31 E.01072
G1 X127.677 Y103.62 E.01023
G1 X127.815 Y103.913 E.01015
G1 X127.989 Y104.186 E.01014
G1 X128.183 Y104.421 E.00955
G1 X128.43 Y104.656 E.01069
G1 X128.695 Y104.848 E.01027
G1 X128.961 Y104.994 E.00952
G1 X129.279 Y105.122 E.01074
G1 X129.594 Y105.202 E.01021
G1 X129.896 Y105.24 E.00952
G1 X130.238 Y105.242 E.01075
G1 X130.561 Y105.2 E.01019
G1 X130.855 Y105.125 E.00953
G1 X131.174 Y105 E.01076
G1 X131.459 Y104.842 E.01018
G1 X131.705 Y104.664 E.00953
G1 X131.955 Y104.429 E.01076
G1 X132.161 Y104.178 E.01018
G1 X132.324 Y103.922 E.00953
G1 X132.413 Y103.734 E.00652
G1 X132.413 Y109.776 E.18946
G1 X117.587 Y109.779 E.46485
G1 X117.587 Y100.221 E.2997
G1 X129.279 Y100.221 E.36658
G1 X128.98 Y100.339 E.01008
G1 X128.695 Y100.494 E.01016
G1 X128.43 Y100.687 E.01029
G1 X128.183 Y100.922 E.01069
G1 X127.989 Y101.156 E.00954
G1 X127.814 Y101.432 E.01022
G1 X127.671 Y101.742 E.0107
G1 X127.589 Y101.996 E.00838
M204 S1000
G1 X127.943 Y102.124 F10800
M204 S800
;TYPE:External perimeter
G1 F1200
G1 X128.023 Y101.879 E.00808
G1 X128.146 Y101.612 E.00921
G1 X128.294 Y101.379 E.00868
G1 X128.459 Y101.179 E.0081
G1 X128.671 Y100.977 E.00919
G1 X128.897 Y100.813 E.00875
G1 X129.14 Y100.681 E.00867
G1 X129.397 Y100.579 E.00866
G1 X129.646 Y100.515 E.00807
G1 X129.939 Y100.477 E.00924
G1 X130.215 Y100.478 E.00868
G1 X130.471 Y100.51 E.00807
G1 X130.757 Y100.582 E.00925
G1 X131.014 Y100.685 E.00868
G1 X131.24 Y100.809 E.00808
G1 X131.479 Y100.982 E.00925
G1 X131.68 Y101.172 E.00867
G1 X131.844 Y101.37 E.00808
G1 X132.002 Y101.619 E.00925
G1 X132.119 Y101.87 E.00867
G1 X132.199 Y102.115 E.00808
G1 X132.254 Y102.404 E.00924
G1 X132.27 Y102.662 E.00808
G1 X132.254 Y102.937 E.00865
G1 X132.204 Y103.209 E.00867
G1 X132.119 Y103.473 E.00868
G1 X131.993 Y103.739 E.00925
G1 X131.855 Y103.957 E.00808
G1 X131.68 Y104.171 E.00867
G1 X131.464 Y104.372 E.00925
G1 X131.256 Y104.524 E.00808
G1 X131.014 Y104.658 E.00868
G1 X130.739 Y104.765 E.00925
G1 X130.49 Y104.829 E.00807
G1 X130.215 Y104.865 E.00868
G1 X129.92 Y104.863 E.00925
G1 X129.665 Y104.831 E.00807
G1 X129.396 Y104.763 E.00869
G1 X129.123 Y104.653 E.00924
G1 X128.897 Y104.529 E.00807
G1 X128.671 Y104.365 E.00874
G1 X128.459 Y104.163 E.00919
G1 X128.294 Y103.964 E.0081
G1 X128.146 Y103.731 E.00866
G1 X128.029 Y103.481 E.00866
G1 X127.943 Y103.217 E.00869
G1 X127.89 Y102.928 E.00923
G1 X127.874 Y102.671 E.00806
G1 X127.892 Y102.396 E.00866
G1 X127.932 Y102.183 E.00678
M204 S1000
G1 X127.759 Y101.944 F10800
;WIPE_START
G1 F8640
G1 X128.023 Y101.879 E-.07324
G1 X128.146 Y101.612 E-.06786
G1 X128.294 Y101.379 E-.06396
G1 X128.459 Y101.179 E-.05966
G1 X128.671 Y100.977 E-.06771
G1 X128.897 Y100.813 E-.06442
G1 X129.14 Y100.681 E-.06383
G1 X129.397 Y100.579 E-.06378
G1 X129.646 Y100.515 E-.05945
G1 X129.939 Y100.477 E-.06807
G1 X130.215 Y100.478 E-.06395
G1 X130.471 Y100.51 E-.05945
G1 X130.757 Y100.582 E-.0681
G1 X131.014 Y100.685 E-.06391
G1 X131.176 Y100.774 E-.04261
;WIPE_END
G1 E-.05 F2100
G1 Z.4 F720
G1 X132.413 Y100.221 F10800
G1 Z.2 F720
G1 E1 F2100
M204 S800
;TYPE:Perimeter
G1 F1200
G1 X132.413 Y101.608 E.04348
G1 X132.334 Y101.438 E.00588
G1 X132.149 Y101.148 E.01076
G1 X131.956 Y100.914 E.00954
G1 X131.72 Y100.691 E.01018
G1 X131.442 Y100.49 E.01076
G1 X131.175 Y100.343 E.00953
G1 X130.865 Y100.221 E.01046
G1 X132.353 Y100.221 E.04665
M204 S1000
G1 X132.79 Y99.844 F10800
M204 S800
;TYPE:External perimeter
G1 F1200
G1 X132.79 Y110.153 E.32324
G1 X117.21 Y110.156 E.4885
G1 X117.21 Y99.844 E.32334
G1 X132.73 Y99.844 E.48662
M204 S1000
G1 X132.661 Y100.222 F10800
G1 X132.021 Y100.409
M204 S800
;TYPE:Gap fill
;WIDTH:0.198128
G1 F1200
G1 X132.224 Y100.925 E.00715
M204 S1000
G1 X132.224 Y100.607 F10800
M204 S800
;WIDTH:0.200356
G1 F1200
G1 X131.708 Y100.421 E.00719
M204 S1000
;WIPE_START
G1 F8640
G1 X132.224 Y100.607 E-.12677
;WIPE_END
G1 E-.87323 F2100
G1 Z.4 F720
G1 X130.658 Y100.357 F10800
G1 Z.2 F720
G1 E1 F2100
M204 S800
;WIDTH:0.337435
G1 F1200
G1 X130.532 Y100.179 E.00534
M204 S1000
M204 S800
;WIDTH:0.337436
G1 X130.524 Y100.179 E.00018
M204 S1000
M204 S800
;WIDTH:0.336308
G1 X130.244 Y100.161 E.00686
M204 S1000
M204 S800
;WIDTH:0.300996
G1 X130.228 Y100.161 E.00034
M204 S1000
M204 S800
;WIDTH:0.299977
G1 X129.927 Y100.16 E.00644
M204 S1000
M204 S800
;WIDTH:0.300362
G1 X129.91 Y100.161 E.00036
M204 S1000
M204 S800
;WIDTH:0.339028
G1 X129.614 Y100.18 E.00731
M204 S1000
M204 S800
;WIDTH:0.33903
G1 X129.594 Y100.207 E.00081
M204 S1000
M204 S800
;WIDTH:0.291045
G1 X129.496 Y100.352 E.00362
M204 S1000
;WIPE_START
G1 F8640
G1 X129.594 Y100.207 E-.04054
;WIPE_END
G1 E-.95946 F2100
G1 Z.4 F720
M73 Q1 S27
G1 X127.715 Y100.334 F10800
G1 Z.2 F720
G1 E1 F2100
M204 S800
;TYPE:Solid infill
;WIDTH:0.429033
G1 F1200
G1 X128.044 Y100.663 E.01495
G1 X127.789 Y100.954 E.01242
G1 X127.339 Y100.504 E.02046
G1 X126.793 Y100.504 E.01753
G1 X127.573 Y101.284 E.03543
G1 X127.401 Y101.658 E.01322
G1 X126.247 Y100.504 E.05242
G1 X125.7 Y100.504 E.01753
G1 X127.279 Y102.083 E.07169
G1 X127.236 Y102.313 E.00752
G1 X127.219 Y102.569 E.00823
G1 X125.154 Y100.504 E.09376
G1 X124.608 Y100.504 E.01753
G1 X127.478 Y103.374 E.13031
M204 S1000
;WIPE_START
G1 F8640
G1 X124.608 Y100.504 E-.93719
G1 X124.664 Y100.504 E-.01281
;WIPE_END
G1 E-.05 F2100
G1 Z.4 F720
G1 X131.96 Y104.579 F10800
G1 Z.2 F720
G1 E1 F2100
M204 S800
G1 F1200
G1 X132.13 Y104.749 E.00771
G1 X132.13 Y105.295 E.01753
G1 X131.788 Y104.953 E.01555
G1 X131.456 Y105.167 E.01268
G1 X132.13 Y105.841 E.03061
G1 X132.13 Y106.387 E.01753
G1 X131.082 Y105.339 E.04757
G1 X130.663 Y105.466 E.01407
G1 X132.13 Y106.933 E.06661
G1 X132.13 Y107.479 E.01753
G1 X130.175 Y105.524 E.08876
G1 X129.877 Y105.523 E.00957
G1 X129.592 Y105.487 E.00923
G1 X132.13 Y108.025 E.11525
G1 X132.13 Y108.571 E.01753
G1 X124.062 Y100.504 E.36631
G1 X123.516 Y100.504 E.01753
G1 X132.13 Y109.117 E.3911
G1 X132.13 Y109.493 E.01207
G1 X131.96 Y109.493 E.00546
G1 X122.97 Y100.504 E.40817
G1 X122.424 Y100.504 E.01753
G1 X131.414 Y109.493 E.40817
G1 X130.868 Y109.493 E.01753
G1 X121.878 Y100.504 E.40818
G1 X121.332 Y100.504 E.01753
G1 X130.322 Y109.494 E.40818
G1 X129.776 Y109.494 E.01753
G1 X120.786 Y100.504 E.40819
G1 X120.24 Y100.504 E.01753
G1 X129.23 Y109.494 E.40819
G1 X128.684 Y109.494 E.01753
G1 X119.694 Y100.504 E.4082
G1 X119.148 Y100.504 E.01753
G1 X128.138 Y109.494 E.40821
G1 X127.593 Y109.494 E.01753
M73 P2 R27
M73 Q2 S27
G1 X118.602 Y100.504 E.40821
G1 X118.056 Y100.504 E.01753
G1 X127.047 Y109.494 E.40822
G1 X126.501 Y109.494 E.01753
G1 X117.87 Y100.864 E.39187
G1 X117.87 Y101.41 E.01753
G1 X125.955 Y109.495 E.36708
G1 X125.409 Y109.495 E.01753
G1 X117.87 Y101.956 E.3423
G1 X117.87 Y102.502 E.01753
G1 X124.863 Y109.495 E.31751
G1 X124.317 Y109.495 E.01753
G1 X117.87 Y103.048 E.29272
G1 X117.87 Y103.594 E.01753
G1 X123.771 Y109.495 E.26793
G1 X123.225 Y109.495 E.01753
G1 X117.87 Y104.14 E.24315
G1 X117.87 Y104.686 E.01753
G1 X122.679 Y109.495 E.21836
G1 X122.133 Y109.495 E.01753
G1 X117.87 Y105.232 E.19357
G1 X117.87 Y105.778 E.01753
G1 X121.587 Y109.495 E.16878
G1 X121.041 Y109.496 E.01753
G1 X117.87 Y106.324 E.144
G1 X117.87 Y106.87 E.01753
G1 X120.495 Y109.496 E.11921
G1 X119.949 Y109.496 E.01753
G1 X117.87 Y107.416 E.09442
G1 X117.87 Y107.962 E.01753
G1 X119.404 Y109.496 E.06963
G1 X118.858 Y109.496 E.01753
G1 X117.87 Y108.508 E.04485
G1 X117.87 Y109.054 E.01753
G1 X118.481 Y109.666 E.02776
M204 S1000
;WIPE_START
G1 F8640
G1 X117.87 Y109.054 E-.19967
G1 X117.87 Y108.508 E-.12608
G1 X118.858 Y109.496 E-.32254
G1 X119.404 Y109.496 E-.12606
G1 X118.866 Y108.958 E-.17565
;WIPE_END
G1 E-.05 F2100
G1 Z.4 F720
G1 X132.451 Y103.549 F10800
G1 Z.2 F720
G1 E1 F2100
M204 S800
;TYPE:Gap fill
;WIDTH:0.303803
G1 F1200
G1 X132.492 Y103.288 E.00572
M204 S1000
M204 S800
;WIDTH:0.262808
G1 X132.493 Y103.275 E.00025
M204 S1000
M204 S800
;WIDTH:0.2594
G1 X132.507 Y103.125 E.00271
M204 S1000
M204 S800
;WIDTH:0.23169
G1 X132.521 Y102.975 E.00237
M204 S1000
M204 S800
;WIDTH:0.203982
G1 X132.522 Y102.964 E.00014
M204 S1000
M204 S800
;WIDTH:0.202755
G1 X132.53 Y102.665 E.00398
M204 S1000
M204 S800
;WIDTH:0.185346
G1 X132.53 Y102.657 E.0001
M204 S1000
M204 S800
;WIDTH:0.203008
G1 X132.521 Y102.376 E.00374
M204 S1000
M204 S800
;WIDTH:0.204288
G1 X132.521 Y102.365 E.00014
M204 S1000
M204 S800
;WIDTH:0.234467
G1 X132.506 Y102.206 E.00255
M204 S1000
M204 S800
;WIDTH:0.264646
G1 X132.491 Y102.047 E.00295
M204 S1000
M204 S800
;WIDTH:0.268184
G1 X132.489 Y102.033 E.00026
M204 S1000
M204 S800
;WIDTH:0.303604
G1 X132.451 Y101.792 E.00528
M204 S1000
; stop printing object SwitchHolder_Wrist_0.stl id:1 copy 0
; printing object SwitchHolder_Shoulder_2.stl id:0 copy 0
;WIPE_START
G1 F8640
G1 X132.489 Y102.033 E-.05629
;WIPE_END
G1 E-.94371 F2100
G1 Z.4 F720
G1 X129.325 Y114.617 F10800
G1 Z.2 F720
G1 E1 F2100
M204 S800
;TYPE:Perimeter
;WIDTH:0.42
G1 F1200
G1 X129.026 Y114.735 E.01008
G1 X128.742 Y114.89 E.01016
G1 X128.476 Y115.083 E.01029
G1 X128.229 Y115.318 E.01069
G1 X128.035 Y115.553 E.00954
G1 X127.861 Y115.828 E.01022
G1 X127.718 Y116.138 E.0107
G1 X127.624 Y116.426 E.00952
G1 X127.563 Y116.744 E.01015
G1 X127.543 Y117.067 E.01015
G1 X127.562 Y117.37 E.0095
G1 X127.623 Y117.706 E.01072
G1 X127.724 Y118.016 E.01023
G1 X127.862 Y118.309 E.01015
G1 X128.035 Y118.582 E.01014
G1 X128.229 Y118.817 E.00955
G1 X128.476 Y119.052 E.01069
G1 X128.742 Y119.244 E.01027
G1 X129.008 Y119.39 E.00952
G1 X129.325 Y119.518 E.01074
G1 X129.641 Y119.598 E.01021
G1 X129.942 Y119.637 E.00952
G1 X130.285 Y119.638 E.01075
G1 X130.607 Y119.596 E.01019
G1 X130.902 Y119.521 E.00953
G1 X131.221 Y119.396 E.01076
G1 X131.505 Y119.238 E.01018
G1 X131.751 Y119.06 E.00953
G1 X132.002 Y118.825 E.01076
G1 X132.208 Y118.574 E.01018
G1 X132.371 Y118.318 E.00953
G1 X132.46 Y118.13 E.00652
G1 X132.46 Y124.172 E.18946
G1 X117.634 Y124.175 E.46485
G1 X117.634 Y114.617 E.2997
G1 X129.265 Y114.617 E.3647
M204 S1000
;WIPE_START
G1 F8640
G1 X129.026 Y114.735 E-.06156
G1 X128.742 Y114.89 E-.0748
G1 X128.476 Y115.083 E-.07577
G1 X128.229 Y115.318 E-.07872
G1 X128.035 Y115.553 E-.07028
G1 X127.861 Y115.828 E-.07526
G1 X127.718 Y116.138 E-.07883
G1 X127.624 Y116.426 E-.07008
G1 X127.563 Y116.744 E-.07473
G1 X127.543 Y117.067 E-.07473
G1 X127.562 Y117.37 E-.06995
G1 X127.623 Y117.706 E-.07892
G1 X127.712 Y117.979 E-.06637
;WIPE_END
G1 E-.05 F2100
G1 Z.4 F720
G1 X130.518 Y114.906 F10800
G1 Z.2 F720
G1 E1 F2100
M204 S800
;TYPE:External perimeter
G1 F1200
G1 X130.803 Y114.978 E.00925
G1 X131.06 Y115.081 E.00868
G1 X131.286 Y115.205 E.00808
G1 X131.525 Y115.378 E.00925
G1 X131.726 Y115.568 E.00867
G1 X131.891 Y115.767 E.00808
G1 X132.049 Y116.015 E.00925
G1 X132.166 Y116.266 E.00867
G1 X132.245 Y116.511 E.00808
G1 X132.301 Y116.8 E.00924
G1 X132.317 Y117.058 E.00808
G1 X132.301 Y117.333 E.00865
G1 X132.25 Y117.605 E.00867
G1 X132.166 Y117.869 E.00868
G1 X132.04 Y118.136 E.00925
G1 X131.902 Y118.353 E.00808
G1 X131.726 Y118.567 E.00867
G1 X131.511 Y118.768 E.00925
G1 X131.302 Y118.92 E.00808
G1 X131.06 Y119.054 E.00868
G1 X130.786 Y119.161 E.00925
G1 X130.536 Y119.225 E.00807
G1 X130.262 Y119.261 E.00868
G1 X129.967 Y119.26 E.00925
G1 X129.711 Y119.227 E.00807
G1 X129.443 Y119.159 E.00869
G1 X129.169 Y119.049 E.00924
G1 X128.944 Y118.925 E.00807
G1 X128.718 Y118.761 E.00874
G1 X128.506 Y118.559 E.00919
G1 X128.341 Y118.36 E.0081
G1 X128.193 Y118.127 E.00866
G1 X128.075 Y117.877 E.00866
G1 X127.99 Y117.613 E.00869
G1 X127.937 Y117.324 E.00923
G1 X127.921 Y117.067 E.00806
G1 X127.938 Y116.792 E.00866
G1 X127.99 Y116.52 E.00866
G1 X128.07 Y116.275 E.00808
G1 X128.193 Y116.008 E.00921
G1 X128.341 Y115.775 E.00868
G1 X128.506 Y115.576 E.0081
G1 X128.718 Y115.373 E.00919
G1 X128.944 Y115.21 E.00875
G1 X129.186 Y115.077 E.00867
G1 X129.443 Y114.976 E.00866
G1 X129.693 Y114.912 E.00807
G1 X129.985 Y114.873 E.00924
G1 X130.262 Y114.874 E.00868
G1 X130.458 Y114.899 E.00619
M204 S1000
G1 X130.71 Y114.682 F10800
G1 X130.912 Y114.617
M204 S800
;TYPE:Perimeter
G1 F1200
G1 X132.46 Y114.617 E.04853
G1 X132.46 Y116.004 E.04348
G1 X132.38 Y115.834 E.00588
G1 X132.196 Y115.544 E.01076
G1 X132.002 Y115.31 E.00954
G1 X131.766 Y115.087 E.01018
G1 X131.488 Y114.886 E.01076
G1 X131.222 Y114.739 E.00953
G1 X130.968 Y114.638 E.00858
M204 S1000
;WIPE_START
G1 F8640
G1 X132.46 Y114.617 E-.3445
G1 X132.46 Y116.004 E-.32023
G1 X132.38 Y115.834 E-.0433
G1 X132.196 Y115.544 E-.07925
G1 X132.002 Y115.31 E-.07022
G1 X131.766 Y115.087 E-.07495
G1 X131.705 Y115.042 E-.01755
;WIPE_END
G1 E-.05 F2100
G1 Z.4 F720
G1 X132.837 Y114.24 F10800
G1 Z.2 F720
G1 E1 F2100
M204 S800
;TYPE:External perimeter
G1 F1200
G1 X132.837 Y124.549 E.32324
